X:4826
T: Olde Tyme Quadrille
O:england
C: Bob McQuillen (June 1975)
M: C|
L: 1/8
K: C
EF \
| "C"GAcd c2G2 | A2G2 G2EF | GAcd e2c2 | "G7"B6 DE \
| FGFE D2c2 | B2D2 D2DE | FGAc B2A2 | "C"A4 G2EF |
| "C"GAcd c2G2 | A2G2 G2EF | GAcd e2c2 | "F"B2A2 A2Bc \
| "Dm"dedc "D7"B2AB | "C"cdec "A7"G2EG | "Dm"A2c2 "G7"BcdB | "C"c6 ||
|| cB \
| "Am"ABAB c2e2 | f2e2 edcB | ABcd e2c2 | e6 de \
| "Dm"fgfe d2f2 | "Am"efec A2c2 | "B7"B2A2 ^G2A2 | "E7"B4 c3B |
| "Am"ABAB c2e2 | f2e2 edcB | ABcB A2e2 | "Dm"d6 fe \
| d2A2 A2ed | "Am"c2A2 A2Bc | "E7"B2f2 edcB | "Am"A4 "(G7)"G2 :|


